X: 44
T:Gan Ainm
M:4/4
L:1/8
S:Ciaran Kelly, Moneymore, Derry (Accordian)
R:Reel
D:Session tape - Derrygonelly, Fermanagh 1993
Z:Bernie Stocks
K:D
d2Ad cdAd | cdef g2fe | d2Ad cdAF | GEEF GABc | d2Ad cdAd | cdef g2fg |\
afge fdec | d2AF GABc || d2fd Adfd | d2fa gece | d2fd Adfd |\
ceAc eAce| d2fd Adfd | cdef g2fg | agfe fdec | d2AF GABc||
